app/img/_src/main/advantages-list/advantages-5.svg

<svg width="77" height="80" viewBox="0 0 77 80" fill="none" xmlns="http://www.w3.org/2000/svg">
<path d="M72.4988 69.4221V50.7363C72.4988 48.959 71.0523 47.5125 69.275 47.5125H58.871V47.1237C58.871 47.1206 58.8704 47.1176 58.8704 47.1139V38.2334C58.8704 36.6013 57.6943 35.2408 56.1464 34.9503V28.7772C56.1464 26.9383 54.7347 25.4228 52.9378 25.2568C52.607 23.3574 51.9002 21.5221 50.8645 19.8961C50.5117 19.3425 49.7775 19.1802 49.2239 19.5323C48.6709 19.8851 48.5079 20.6194 48.8607 21.1729C49.6511 22.4138 50.2126 23.8005 50.516 25.2409H26.414C27.3698 20.6901 30.8598 16.9957 35.4386 15.8385C37.4063 15.3423 39.5236 15.3423 41.4914 15.8385C43.1393 16.2548 44.6591 16.9969 46.0086 18.0443C46.5274 18.4465 47.2732 18.3525 47.676 17.8343C48.0782 17.3155 47.9836 16.5691 47.4655 16.1669C46.1032 15.1097 44.5944 14.3139 42.9709 13.7926V9.02886C42.9709 7.13373 41.5091 5.57369 39.6536 5.41561V1.18835C39.6536 0.531612 39.1214 0 38.4653 0C37.8092 0 37.2769 0.531612 37.2769 1.18835V5.415C35.4215 5.57308 33.9591 7.13312 33.9591 9.02886V13.7945C28.7772 15.4625 24.9205 19.9022 23.9915 25.2568C22.1953 25.4234 20.7841 26.9383 20.7841 28.7772V34.9503C19.2357 35.2402 18.0596 36.6013 18.0596 38.2334V47.1218V47.1237V47.5125H7.65558C5.87764 47.5125 4.43173 48.9584 4.43173 50.7357V69.4221C1.911 69.9067 0 72.1277 0 74.7882V78.811C0 79.4672 0.532223 79.9994 1.18835 79.9994C1.84447 79.9994 2.37669 79.4678 2.37669 78.811V74.7882C2.37669 73.0848 3.76218 71.6993 5.46566 71.6993H9.03436C9.69048 71.6993 10.2227 71.1671 10.2227 70.5109C10.2227 69.8542 9.69048 69.3226 9.03436 69.3226H6.80842V55.0545H18.0596V69.3226H14.843C14.1869 69.3226 13.6547 69.8548 13.6547 70.5109C13.6547 71.1677 14.1869 71.6993 14.843 71.6993H71.4649C73.1684 71.6993 74.5539 73.0854 74.5539 74.7889V78.8117C74.5539 79.4678 75.0861 80 75.7422 80C76.3983 80 76.9306 79.4678 76.9306 78.8117V74.7882C76.9306 72.1284 75.0196 69.9067 72.4988 69.4221ZM37.5876 7.77765H38.4592H38.4653H38.4714H39.343C40.0327 7.77765 40.5942 8.33856 40.5942 9.02886V13.2439C39.1861 13.0413 37.7439 13.0413 36.3358 13.2439V9.02886C36.3358 8.33856 36.8973 7.77765 37.5876 7.77765ZM69.275 49.8885C69.7425 49.8885 70.1221 50.2688 70.1221 50.7357V52.6778H58.871V49.8885H69.275ZM49.996 63.2588C49.3398 63.2588 48.8076 63.791 48.8076 64.4471V69.3226H43.497V55.0545H48.8076V59.6059C48.8076 60.262 49.3398 60.7942 49.996 60.7942C50.6521 60.7942 51.1843 60.2626 51.1843 59.6059V55.0545H56.4949V69.3226H51.1837V64.4471C51.1837 63.791 50.6521 63.2588 49.996 63.2588ZM20.4356 48.7039C20.4356 48.7026 20.4362 48.7014 20.4362 48.7008V48.0032L38.4653 42.5052L56.4937 48.0032V48.7008C56.4937 48.7057 56.4943 48.7106 56.4949 48.7161V52.6778H20.4356V48.7039ZM33.4336 55.0545V69.3226H28.123V55.0545H33.4336ZM35.8103 55.0545H41.1209V69.3226H35.8103V55.0545ZM21.4012 37.2672H21.9633H21.9725H21.9816H25.4966C26.1528 37.2672 26.685 36.735 26.685 36.0788C26.685 35.4221 26.1528 34.8905 25.4966 34.8905H23.1608V28.7772C23.1608 28.137 23.6815 27.617 24.3211 27.617H25.0212C25.0242 27.617 25.0273 27.6176 25.0303 27.6176C25.034 27.6176 25.037 27.617 25.0401 27.617H51.8905C51.8935 27.617 51.8966 27.6176 51.9002 27.6176C51.9033 27.6176 51.9063 27.617 51.9094 27.617H52.6101C53.2497 27.617 53.7703 28.137 53.7703 28.7772V34.8905H30.8427C30.1865 34.8905 29.6543 35.4221 29.6543 36.0788C29.6543 36.735 30.1865 37.2672 30.8427 37.2672H54.9489H54.9581H54.9672H55.5294C56.061 37.2672 56.4937 37.7005 56.4937 38.2334V45.5191L38.812 40.1266C38.5861 40.0577 38.3444 40.0577 38.1186 40.1266L20.4362 45.5191V38.2334C20.4362 37.7005 20.869 37.2672 21.4012 37.2672ZM6.80842 52.6778V50.7357C6.80842 50.2688 7.18867 49.8885 7.65558 49.8885H18.0596V52.6778H6.80842ZM20.4356 55.0545H25.7469V69.3226H20.4362V55.0545H20.4356ZM58.871 69.3226V55.0545H70.1221V69.3226H58.871Z" fill="#444444"/>
</svg>

<svg width="77" height="80" fill="none" xmlns="http://www.w3.org/2000/svg"><path d="M72.499 69.422V50.736a3.228 3.228 0 00-3.224-3.223H58.871v-9.28a3.346 3.346 0 00-2.725-3.283v-6.173a3.54 3.54 0 00-3.208-3.52 14.707 14.707 0 00-2.074-5.36 1.189 1.189 0 00-2.003 1.276 12.316 12.316 0 011.655 4.068H26.414a12.336 12.336 0 019.025-9.402 12.492 12.492 0 016.052 0 12.198 12.198 0 014.518 2.205 1.189 1.189 0 001.456-1.877 14.566 14.566 0 00-4.494-2.374V9.029a3.632 3.632 0 00-3.317-3.613V1.188a1.188 1.188 0 10-2.377 0v4.227a3.633 3.633 0 00-3.318 3.614v4.765a14.72 14.72 0 00-9.968 11.463 3.54 3.54 0 00-3.207 3.52v6.173a3.346 3.346 0 00-2.724 3.283v9.28H7.656a3.227 3.227 0 00-3.224 3.223v18.686A5.474 5.474 0 000 74.788v4.023a1.189 1.189 0 002.377 0v-4.023A3.092 3.092 0 015.466 71.7h3.568a1.189 1.189 0 000-2.376H6.808V55.055H18.06v14.268h-3.217a1.189 1.189 0 000 2.376h56.622a3.093 3.093 0 013.089 3.09v4.023a1.189 1.189 0 002.377 0v-4.024a5.474 5.474 0 00-4.432-5.366zM37.588 7.778h1.755c.69 0 1.251.56 1.251 1.25v4.216a14.994 14.994 0 00-4.258 0V9.029c0-.69.561-1.251 1.252-1.251zm31.687 42.11c.468 0 .847.38.847.848v1.942H58.871v-2.79h10.404zm-19.279 13.37a1.19 1.19 0 00-1.188 1.19v4.875h-5.311V55.055h5.31v4.55a1.189 1.189 0 002.377 0v-4.55h5.31v14.268h-5.31v-4.876c0-.656-.532-1.188-1.188-1.188zm-29.56-14.554v-.701l18.03-5.498 18.028 5.498v4.675H20.437v-3.974zm12.998 6.35v14.269h-5.311V55.055h5.31zm2.376 0h5.31v14.269h-5.31V55.055zM21.401 37.267h4.096a1.189 1.189 0 000-2.377H23.16v-6.113c0-.64.52-1.16 1.16-1.16h28.29c.64 0 1.16.52 1.16 1.16v6.114H30.843a1.188 1.188 0 100 2.376h24.686c.532 0 .965.433.965.966v7.286l-17.682-5.392a1.189 1.189 0 00-.693 0l-17.683 5.392v-7.286c0-.532.433-.966.965-.966zM6.808 52.677v-1.941c0-.467.38-.847.848-.847H18.06v2.789H6.808zm13.628 2.377h5.31v14.269h-5.31V55.055zM58.87 69.323V55.055h11.251v14.268h-11.25z" fill="#444"/></svg>
